X:1
T:Herold, 77.77
T:Herold, 77.77
T:Anonymous, 1875
T:Public Domain Courtesy of the Cyber Hymnal™
C:Anonymous, 1875
Z:Public Domain
Z:Courtesy of the Cyber Hymnal™
%%score ( 1 2 ) ( 3 4 )
L:1/8
Q:1/4=103
M:4/4
K:A
V:1 treble 
V:2 treble 
V:3 bass 
V:4 bass 
V:1
 [EA]2 (B>G) [EA]2 [GB]2 | [Ac]2 ([Fd][Ac]) ([EB]2 [Ge]2) | [EA]2 (B>G) [CA]2 [EB]2 | %3
 [Ec]2 ([Fd][Ac]) [EB]4 | [Ee]2 [EA]2 [FB]2 (cd) | [Ec]2 (Bc) A4 | [Ee]2 [EA]2 [FB]2 ([Ec][Dd]) | %7
 [Ec]2 [GB]2 [EA]4 |] %8
V:2
 x2 E2 x4 | x8 | x2 D2 x4 | x8 | x6 F2 | x2 D2 (C2 GF) | x8 | x8 |] %8
V:3
 [A,C]2 (D>B,) [A,,C]2 [E,E]2 | (EC) (B,A,) (G,2 B,2) | [C,A,]2 (G,>B,) A,C [G,B,]2 | %3
 A,2 (B,A,) [E,G,]4 | [C,A,]2 [C,A,]2 [D,A,]2 [D,A,]2 | [E,A,]2 [E,G,]2 A,4 | %6
 [C,A,]2 [C,A,]2 [D,A,]2 A,2 | (A,C) (ED) [A,,C]4 |] %8
V:4
 x2 E,2 x4 | A,2 D,2 E,4 | x2 E,2 F,2 x2 | A,2 D,2 x4 | x8 | x4 (F,2 E,D,) | x6 (E,F,) | %7
 E,2 E,2 x4 |] %8

